svgs/sharp-light/jar.svg

<svg xmlns="http://www.w3.org/2000/svg" viewBox="0 0 320 512"><!--! Font Awesome Pro 6.6.0 by @fontawesome - https://fontawesome.com License - https://fontawesome.com/license (Commercial License) Copyright 2024 Fonticons, Inc. --><path d="M272 0l0 32L48 32 48 0 272 0zM32 96l0 96 256 0 0-96L32 96zm0 128l0 128 256 0 0-128L32 224zm0 160l0 96 256 0 0-96L32 384zM0 64l32 0 256 0 32 0 0 32 0 384 0 32-32 0L32 512 0 512l0-32L0 96 0 64z"/></svg>

<svg xmlns="http://www.w3.org/2000/svg" viewBox="0 0 320 512"><!--! Font Awesome Pro 6.4.2 by @fontawesome - https://fontawesome.com License - https://fontawesome.com/license (Commercial License) Copyright 2023 Fonticons, Inc. --><path d="M272 0V32H48V0H272zM32 96v96H288V96H32zm0 128V352H288V224H32zm0 160v96H288V384H32zM0 64H32 288h32V96 480v32H288 32 0V480 96 64z"/></svg>
